X: 85
T: Mrs. Margaret MacDonald's Delight Reel
T: Reel, A
L: 1/16
M: C|
K: A
|: A,4A,2C2 E4C2E2| c4B2c2 B2A2F2B2| A2F2E2F2 A4A2f2| e2c2B2A2 B2c2A2F2| 
A,4A,2C2 E4C2E2| c4B2c2 B2A2F2B2| A2F2E2F2 A4A2f2| [1 e2c2B2e2 c2A2A4:| [2 e2c2B2e2 c2A2A2f2|] 
|: e2c2B2c2 A2F2E2F2| AAA2 a2g2 f2e2f2a2| e2c2B2A2 c2A2F2G2| [1 A2F2E2C2 A,6f2:| [2 A2F2E2C2 A,6 =G,2|]
D: Kinnon and Betty Beaton, Saturday Night Lively, KB20M98
